svgs/actionbound.svg

<svg viewBox="0 0 192 192" xml:space="preserve" style="fill-rule:evenodd;clip-rule:evenodd;stroke-linejoin:round;stroke-miterlimit:2" xmlns="http://www.w3.org/2000/svg"><path d="M1565.06 73.161c-2.89-.169-5.94-.263-9.16-.263-22.82 0-30.48 10.446-31.83 17.002-.99 4.87.98 8.734 3.45 10.45a5.306 5.306 0 0 0 7.38-1.324 5.325 5.325 0 0 0-.43-6.592c.13-.556.53-1.979 1.33-2.921 2.88-3.398 9.08-6.017 20.1-6.017 1.43 0 2.83.02 4.18.059-9.22 19.74-16 36.696-19.5 50.434-2.81 11.077-3.49 20.234-1.92 27.261a5.303 5.303 0 0 0 6.33 4.016 5.314 5.314 0 0 0 4.02-6.327c-1.29-5.764-.47-13.253 1.84-22.338 3.59-14.093 10.81-31.671 20.58-52.273 9.33 1.023 16.13 2.787 20.06 4.03l-12.48 59.541a5.277 5.277 0 0 0 1.07 4.428 5.293 5.293 0 0 0 4.11 1.959h24.08c2.51 0 4.67-1.759 5.19-4.214l24.8-118.482a5.308 5.308 0 0 0-3.94-6.236c-27.2-6.604-51.82 13.266-69.26 47.807Zm37.75 12.87-12.09 57.656h13.25l22.78-108.872c-4.66-.411-9.19.196-13.55 1.687l-10.39 49.529Zm-1.85-42.823-.66.51c-8.91 7.011-16.92 17.565-23.87 30.545 7.5 1.036 13.3 2.48 17.25 3.673l7.28-34.728Z" style="fill-rule:evenodd;clip-rule:evenodd;stroke-linejoin:round;stroke-miterlimit:2" transform="translate(-1694.16 -11.264) scale(1.13223)"/></svg>

<?xml version="1.0" encoding="UTF-8" standalone="no"?>
<svg
   width="100%"
   height="100%"
   viewBox="0 0 192 192"
   version="1.1"
   xml:space="preserve"
   style="fill-rule:evenodd;clip-rule:evenodd;stroke-linejoin:round;stroke-miterlimit:2;"
   id="svg7"
   sodipodi:docname="actionbound.svg"
   inkscape:version="1.2.1 (9c6d41e410, 2022-07-14)"
   xmlns:inkscape="http://www.inkscape.org/namespaces/inkscape"
   xmlns:sodipodi="http://sodipodi.sourceforge.net/DTD/sodipodi-0.dtd"
   xmlns="http://www.w3.org/2000/svg"
   xmlns:svg="http://www.w3.org/2000/svg"><defs
   id="defs11" /><sodipodi:namedview
   id="namedview9"
   pagecolor="#ffffff"
   bordercolor="#000000"
   borderopacity="0.25"
   inkscape:showpageshadow="2"
   inkscape:pageopacity="0.0"
   inkscape:pagecheckerboard="0"
   inkscape:deskcolor="#d1d1d1"
   showgrid="false"
   inkscape:zoom="5.3489583"
   inkscape:cx="95.906524"
   inkscape:cy="95.906524"
   inkscape:window-width="2552"
   inkscape:window-height="1303"
   inkscape:window-x="4"
   inkscape:window-y="36"
   inkscape:window-maximized="0"
   inkscape:current-layer="svg7" />
    
    <path
   d="M1565.06,73.161C1562.17,72.992 1559.12,72.898 1555.9,72.898C1533.08,72.898 1525.42,83.344 1524.07,89.9C1523.08,94.77 1525.05,98.634 1527.52,100.35C1529.92,102.02 1533.23,101.427 1534.9,99.026C1536.33,96.959 1536.09,94.22 1534.47,92.434C1534.6,91.878 1535,90.455 1535.8,89.513C1538.68,86.115 1544.88,83.496 1555.9,83.496C1557.33,83.496 1558.73,83.516 1560.08,83.555C1550.86,103.295 1544.08,120.251 1540.58,133.989C1537.77,145.066 1537.09,154.223 1538.66,161.25C1539.3,164.104 1542.13,165.904 1544.99,165.266C1547.84,164.628 1549.64,161.793 1549.01,158.939C1547.72,153.175 1548.54,145.686 1550.85,136.601C1554.44,122.508 1561.66,104.93 1571.43,84.328C1580.76,85.351 1587.56,87.115 1591.49,88.358L1579.01,147.899C1578.68,149.461 1579.07,151.088 1580.08,152.327C1581.08,153.566 1582.6,154.286 1584.19,154.286L1608.27,154.286C1610.78,154.286 1612.94,152.527 1613.46,150.072L1638.26,31.59C1638.84,28.789 1637.1,26.03 1634.32,25.354C1607.12,18.75 1582.5,38.62 1565.06,73.161ZM1602.81,86.031L1590.72,143.687C1590.72,143.687 1603.97,143.687 1603.97,143.687C1603.97,143.687 1626.75,34.815 1626.75,34.815C1622.09,34.404 1617.56,35.011 1613.2,36.502L1602.81,86.031L1602.81,86.031ZM1600.96,43.208L1600.3,43.718C1591.39,50.729 1583.38,61.283 1576.43,74.263C1583.93,75.299 1589.73,76.743 1593.68,77.936L1600.96,43.208Z"
   id="path3"
   style="fill-rule:evenodd;clip-rule:evenodd;stroke-linejoin:round;stroke-miterlimit:2"
   transform="matrix(1.13223,0,0,1.13223,-1694.16,-11.2639)"
   inkscape:label="actionbound" />
</svg>
